!!!OTL: Brennende Liebe.
!!!OTL-incipit: IN MEINEM GAERTCHEN
!!!COM: K. E. Hering
!!!ARE: Europa, Mitteleuropa, Deutschland
!!!SCT: F0871
!!!TXL: @@DE
!!!YEM: Copyright 1995, estate of Helmut Schaffrath.
**kern	**text	**text	**text	**text
*ICvox	*	*	*	*
*clefG2	*	*	*	*
*M2/4	*	*	*	*
*k[b-]	*	*	*	*
*F:	*	*	*	*
!LO:TX:a:t=Einfach.	!	!	!	!
{8cc	1._Jn	2._Wo-	3._Brauch'	4._Die
=1	=1	=1	=1	=1
8cc	meinem	-hin	ih-	ſchlimmen
8a	.	ich	-rer	.
8b-/	Gärtchen	mir	nicht	Nachba-
8cc	.	nur	ʒu	.
=2	=2	=2	=2	=2
8ddL	la-	wen-	war-	-rin-
8ccJ	.	.	.	.
8b-}	-chet	-de,	-ten,	-nen,
{8a	manch	ſteht	ſie	die
=3	=3	=3	=3	=3
8g	Blümlein	auch	ſprießet	bleiben
8f	.	die	.	.
8e	klar	hel-	Tag	neid-
8f	und	-le	und	-voll
=4	=4	=4	=4	=4
4g	roth,	Blum',	Nacht!	ſtehn,
8r}	.	.	.	.
{8g	vor	es	wer	und
=5	=5	=5	=5	=5
8a	al-	glühet	hat	flüstern:
8cc	-len	.	mir	.
8cc	a-	ſon-	doch	Ach,
8b-/	-ber	-der	ʒum	da
=6	=6	=6	=6	=6
8aL	1._ma-	2._En-	3._Gar-	4._drin-
8b-J	.	.	.	.
8cc}	-chet	-de	-ten	-nen
{8f	die	die	die	blüht
=7	=7	=7	=7	=7
8dd	brennende	brennende	brennende	brennende
16cc	.	.	.	.
16b-	.	.	.	.
8cc	Lie-	Lie-	Lie-	Lie-
16dd	-be	-be	-be	-be
16ee	mir	rings-	ge-	ſo
=8	=8	=8	=8	=8
2ff	Noth.	-um!	-bracht?	ſön!
=9	=9	=9	=9	=9
4r	.	.	.	.
8r}	.	.	.	.
==	==	==	==	==
!!!AGN: Liebes - Lied
!!!ONB: ESAC (Essen Associative Code) Database: FINK
!!!AMT: simple duple
!!!AIN: vox
!!!EED: Helmut Schaffrath
!!!EEV: 1.0
!!Text: J. Mosen
!!!GTL: Romanzen und Balladen
!!!source: Musikalischer Hausschatz der Deutschen. Eine Sammlung von über 1000 Liedern und Gesängen mit Singstimmen und Klavierbegleitung. Leipzig, Litterarisches Verlags-Haus.
!!!page: 625
!!!URL-scan: https://www.digitale-sammlungen.de/en/view/bsb11144622?page=561
!!!ENC: Anna Maria Matuszewska
!!!EEV: 2024/08/07
*-	*-	*-	*-	*-